svgs/facebook.svg

<svg width="192" height="192" viewBox="0 0 192 192" fill="none" xmlns="http://www.w3.org/2000/svg"><path d="M96 170c40.869 0 74-33.131 74-74 0-40.87-33.131-74-74-74-40.87 0-74 33.13-74 74 0 40.869 33.13 74 74 74Zm0 0v-62m30-48h-10c-11.046 0-20 8.954-20 20v28m0 0H74m22 0h22" stroke="#000" stroke-width="12" stroke-linecap="round"/></svg>

<svg id="vector" xmlns="http://www.w3.org/2000/svg" width="192" height="192" viewBox="0 0 192 192"><path fill="#00000000" d="M96,170C136.869,170 170,136.869 170,96C170,55.131 136.869,22 96,22C55.131,22 22,55.131 22,96C22,136.869 55.131,170 96,170ZM96,170V108M126,60H116C104.954,60 96,68.954 96,80V108M96,108H74M96,108H118" stroke-width="12" stroke="#000000" stroke-linecap="round" id="path_0"/></svg>
